symbols/web/person_pin/materialsymbolsoutlined/person_pin_wght100gradN25fill1_48px.svg

<svg xmlns="http://www.w3.org/2000/svg" height="48" width="48"><path d="m24 42.3-4.9-4.9h-7.8q-1.1 0-1.9-.8-.8-.8-.8-1.9V9.3q0-1.1.8-1.9.8-.8 1.9-.8h25.4q1.1 0 1.9.8.8.8.8 1.9v25.4q0 1.1-.8 1.9-.8.8-1.9.8h-7.8Zm.05-17.85q2.35 0 4-1.625T29.7 18.8q0-2.4-1.65-4.025-1.65-1.625-4-1.625-2.4 0-4.05 1.625T18.35 18.8q0 2.4 1.65 4.025 1.65 1.625 4.05 1.625ZM24 40.65l4.35-4.35h8.35q.7 0 1.15-.375.45-.375.45-.825-2.8-2.65-6.425-4.25T24 29.25q-4.25 0-7.875 1.6T9.7 35.1q0 .45.45.8.45.35 1.15.4h8.35Z"/></svg>

<svg xmlns="http://www.w3.org/2000/svg" height="48" width="48"><path d="M24 42.3 19.1 37.4H11.3Q10.2 37.4 9.4 36.6Q8.6 35.8 8.6 34.7V9.3Q8.6 8.2 9.4 7.4Q10.2 6.6 11.3 6.6H36.7Q37.8 6.6 38.6 7.4Q39.4 8.2 39.4 9.3V34.7Q39.4 35.8 38.6 36.6Q37.8 37.4 36.7 37.4H28.9ZM24.05 24.45Q26.4 24.45 28.05 22.825Q29.7 21.2 29.7 18.8Q29.7 16.4 28.05 14.775Q26.4 13.15 24.05 13.15Q21.65 13.15 20 14.775Q18.35 16.4 18.35 18.8Q18.35 21.2 20 22.825Q21.65 24.45 24.05 24.45ZM24 40.65 28.35 36.3H36.7Q37.4 36.3 37.85 35.925Q38.3 35.55 38.3 35.1Q35.5 32.45 31.875 30.85Q28.25 29.25 24 29.25Q19.75 29.25 16.125 30.85Q12.5 32.45 9.7 35.1Q9.7 35.55 10.15 35.9Q10.6 36.25 11.3 36.3H19.65Z"/></svg>
